scanin/ColorCheckerPassport.ti2
CTI2

DESCRIPTOR "Argyll Calibration Target chart information 2"
# X-Rite ColorCheckerPassport 6x4 chart, read by column starting on left, top to bottom.
ORIGINATOR "Argyll printtarg"
CREATED "Wed Apr 11 22:19:15 2007"
KEYWORD "TARGET_INSTRUMENT"
TARGET_INSTRUMENT "GretagMacbeth SpectroScan"
KEYWORD "APPROX_WHITE_POINT"
APPROX_WHITE_POINT "86.776 90.361 70.642"
KEYWORD "COLOR_REP"
COLOR_REP "RGB"
KEYWORD "STEPS_IN_PASS"
STEPS_IN_PASS "8"
KEYWORD "PASSES_IN_STRIPS2"
PASSES_IN_STRIPS2 "4"
KEYWORD "STRIP_INDEX_PATTERN"
STRIP_INDEX_PATTERN "N-W, A-E, A-U"
#STRIP_INDEX_PATTERN "A-Z, 2-9;A-X,2A-9Z"
KEYWORD "PATCH_INDEX_PATTERN"
PATCH_INDEX_PATTERN "0-9,@-9;1-99"

KEYWORD "SAMPLE_LOC"
NUMBER_OF_FIELDS 9
BEGIN_DATA_FORMAT
SAMPLE_ID SAMPLE_LOC RGB_R RGB_G RGB_B XYZ_X XYZ_Y XYZ_Z 
END_DATA_FORMAT

NUMBER_OF_SETS 50
BEGIN_DATA
1	"SAT01"	0	0	0	31.44433 19.28609 6.888559
2	"SAT02"	0	0	0	56.06466 44.03037 6.427599
3	"SAT03"	0	0	0	67.32424 67.44716 7.468562
4	"SAT04"	0	0	0	15.57065 29.46580 11.20434
5	"SAT05"	0	0	0	21.61996 29.77897 41.25517
6	"SAT06"	0	0	0	17.45657 19.37280 46.61877
7	"SAT07"	0	0	0	24.11429 18.91082 30.96445
8	"SAT08"	0	0	0	30.36063 18.85857 16.93815
9	"WBP01"	0	0	0	55.60317 57.72930 46.42133
10	"WBP02"	0	0	0	57.04961 60.32451 49.89967
11	"WBP03"	0	0	0	53.81167 58.17705 49.42471
12	"WBP04"	0	0	0	52.37830 57.34325 49.64556
13	"WBP05"	0	0	0	52.46976 58.68018 51.97626
14	"WBL01"	0	0	0	59.66103 59.33274 48.55178
15	"WBL02"	0	0	0	59.04148 59.36891 48.29235
16	"WBL03"	0	0	0	55.92045 58.05267 47.03935
17	"WBL04"	0	0	0	55.08358 58.52658 51.10276
18	"WBL05"	0	0	0	53.89226 58.20047 53.59833
19	"NEU01"	0	0	0	3.151107 3.263644 2.737095
20	"NEU02"	0	0	0	3.610326 3.768524 3.225077
21	"NEU03"	0	0	0	4.585675 4.814770 4.063276
22	"NEU04"	0	0	0	5.242110 5.523981 4.582603
23	"NEU05"	0	0	0	44.36513 46.36496 37.75652
24	"NEU06"	0	0	0	55.83610 58.28197 47.53593
25	"NEU07"	0	0	0	70.62723 73.60336 59.69404
26	"NEU08"	0	0	0	88.63847 92.36816 71.51666
27	"A01"	0	0	0	11.773 10.213 4.9219
28	"A02"	0	0	0	40.174 36.201 20.217
29	"A03"	0	0	0	17.675 19.409 26.983
30	"A04"	0	0	0	11.121 13.530 5.5615
31	"A05"	0	0	0	25.551 24.404 34.847
32	"A06"	0	0	0	31.744 43.164 35.249
33	"B01"	0	0	0	40.056 30.947 4.8180
34	"B02"	0	0	0	12.544 11.700 28.648
35	"B03"	0	0	0	30.675 20.352 10.837
36	"B04"	0	0	0	8.3961 6.5047 10.849
37	"B05"	0	0	0	36.036 44.991 8.9494
38	"B06"	0	0	0	50.203 44.570 6.2773
39	"C01"	0	0	0	7.4590 6.0952 23.518
40	"C02"	0	0	0	15.439 23.986 7.7482
41	"C03"	0	0	0	22.850 13.022 4.1188
42	"C04"	0	0	0	59.637 60.332 7.3520
43	"C05"	0	0	0	30.450 20.015 22.947
44	"C06"	0	0	0	13.591 19.466 30.479
45	"D01"	0	0	0	86.776 90.361 70.642
46	"D02"	0	0	0	56.865 59.038 48.218
47	"D03"	0	0	0	34.763 36.036 29.378
48	"D04"	0	0	0	18.884 19.603 16.309
49	"D05"	0	0	0	8.4332 8.7464 7.1022
50	"D06"	0	0	0	3.0110 3.0971 2.5475
END_DATA
